src/icons/git.svg

<svg id="git" xmlns="http://www.w3.org/2000/svg" viewBox="0 0 30 30" fill="none">
  <path d="M11.0513 25.0051C3.8718 27.0025 3.87179 21.676 1 21.0102M21.1026 29V23.8466C21.1564 23.2116 21.0639 22.5733 20.8312 21.974C20.5985 21.3748 20.2309 20.8283 19.7528 20.371C24.2615 19.9049 29 18.3203 29 11.0496C28.9996 9.19038 28.2285 7.40249 26.8462 6.05594C27.5007 4.42936 27.4544 2.63144 26.7169 1.03568C26.7169 1.03568 25.0226 0.569607 21.1026 3.0065C17.8115 2.17932 14.3423 2.17932 11.0513 3.0065C7.13128 0.569607 5.43692 1.03568 5.43692 1.03568C4.69941 2.63144 4.65313 4.42936 5.30769 6.05594C3.91505 7.41248 3.14311 9.21653 3.15385 11.0895C3.15385 18.307 7.89231 19.8916 12.401 20.411C11.9286 20.8637 11.5643 21.4036 11.3317 21.9955C11.0992 22.5874 11.0036 23.2181 11.0513 23.8466V29" stroke-linecap="round" stroke-linejoin="round"/>
</svg>

<svg xmlns="http://www.w3.org/2000/svg" fill="none" viewBox="0 0 30 30"><path d="M11.051 25.005C3.871 27.003 3.871 21.676 1 21.01M21.103 29v-5.153a4.2 4.2 0 0 0-.272-1.873c-.232-.6-.6-1.146-1.078-1.603C24.262 19.905 29 18.321 29 11.05c0-1.86-.771-3.648-2.154-4.994a6.3 6.3 0 0 0-.13-5.02s-1.693-.466-5.613 1.97a20.67 20.67 0 0 0-10.052 0C7.131.57 5.437 1.037 5.437 1.037a6.3 6.3 0 0 0-.13 5.02c-1.392 1.356-2.164 3.16-2.153 5.033 0 7.218 4.738 8.803 9.247 9.322a4.46 4.46 0 0 0-1.07 1.584 4.2 4.2 0 0 0-.28 1.852V29"/></svg>
